icon-themes/breeze_svg/cmd/32/borderdialog.svg

<svg viewBox="0 0 32 32" xmlns="http://www.w3.org/2000/svg"><path d="m5 4v2h22v-2zm0 5v1h22v-1zm0 4v2h2v-2zm4 0v2h2v-2zm4 0v2h2v-2zm4 0v2h2v-2zm4 0v2h2v-2zm4 0v2h2v-2zm-20 5v1h22v-1zm0 4v1h1v-1zm3 0v1h1v-1zm3 0v1h1v-1zm3 0v1h1v-1zm3 0v1h1v-1zm3 0v1h1v-1zm3 0v1h1v-1zm3 0v1h1v-1zm-21 4v2h11v-2z" fill="#4d4d4d"/><path d="m19 26c-.55228 0-1 .44772-1 1s.44772 1 1 1 1-.44772 1-1-.44772-1-1-1zm4 0c-.55228 0-1 .44772-1 1s.44772 1 1 1 1-.44772 1-1-.44772-1-1-1zm4 0c-.55228 0-1 .44772-1 1s.44772 1 1 1 1-.44772 1-1-.44772-1-1-1z" fill="#f47750"/></svg>

<svg xmlns="http://www.w3.org/2000/svg" viewBox="0 0 32 32">
  <path
     style="fill:#4d4d4d"
     d="M 5 4 L 5 6 L 27 6 L 27 4 L 5 4 z M 5 9 L 5 10 L 27 10 L 27 9 L 5 9 z M 5 13 L 5 15 L 7 15 L 7 13 L 5 13 z M 9 13 L 9 15 L 11 15 L 11 13 L 9 13 z M 13 13 L 13 15 L 15 15 L 15 13 L 13 13 z M 17 13 L 17 15 L 19 15 L 19 13 L 17 13 z M 21 13 L 21 15 L 23 15 L 23 13 L 21 13 z M 25 13 L 25 15 L 27 15 L 27 13 L 25 13 z M 5 18 L 5 19 L 27 19 L 27 18 L 5 18 z M 5 22 L 5 23 L 6 23 L 6 22 L 5 22 z M 8 22 L 8 23 L 9 23 L 9 22 L 8 22 z M 11 22 L 11 23 L 12 23 L 12 22 L 11 22 z M 14 22 L 14 23 L 15 23 L 15 22 L 14 22 z M 17 22 L 17 23 L 18 23 L 18 22 L 17 22 z M 20 22 L 20 23 L 21 23 L 21 22 L 20 22 z M 23 22 L 23 23 L 24 23 L 24 22 L 23 22 z M 26 22 L 26 23 L 27 23 L 27 22 L 26 22 z M 5 26 L 5 28 L 16 28 L 16 26 L 5 26 z "
     id="path4" />
  <path 
	 style="fill:#f47750"
     d="M 19 26 C 18.44772 26 18 26.44772 18 27 C 18 27.55228 18.44772 28 19 28 C 19.55228 28 20 27.55228 20 27 C 20 26.44772 19.55228 26 19 26 z M 23 26 C 22.44772 26 22 26.44772 22 27 C 22 27.55228 22.44772 28 23 28 C 23.55228 28 24 27.55228 24 27 C 24 26.44772 23.55228 26 23 26 z M 27 26 C 26.44772 26 26 26.44772 26 27 C 26 27.55228 26.44772 28 27 28 C 27.55228 28 28 27.55228 28 27 C 28 26.44772 27.55228 26 27 26 z "
	 />
</svg>
